static/img/pictures/vision/1.svg

<svg width="60" height="73" xmlns="http://www.w3.org/2000/svg"><defs><linearGradient x1="-10.45%" y1="91.848%" x2="107.505%" y2="-3.584%" id="a"><stop stop-color="#4AFDCB" offset="0%"/><stop stop-color="#5DA5FD" offset="100%"/></linearGradient><linearGradient x1="-78.489%" y1="205.45%" x2="166.908%" y2="-125.382%" id="b"><stop stop-color="#4AFDCB" offset="0%"/><stop stop-color="#5DA5FD" offset="100%"/></linearGradient></defs><g fill="none"><path d="M18.5 67.4l11.2 5.4L41 67.4c11.2-5.4 18.5-17 18.5-29.5V11.1H57c-4.8 0-8.6-3.9-8.6-8.6V0H11.1v2.5c0 4.8-3.9 8.6-8.6 8.6H0V38c0 12.4 7.3 24 18.5 29.4zM4.9 15.8c5.5-1 9.8-5.4 10.9-10.9h28c1 5.5 5.4 9.8 10.9 10.9V38c0 10.6-6.2 20.5-15.7 25.1l-9.1 4.4-9.3-4.5C11.1 58.4 4.9 48.6 4.9 37.9V15.8z" fill="url(#a)"/><path fill="url(#b)" d="M45.7 26.2l-1.6-1.6-17.8 17.8-7.7-7.6-1.5 1.6 9.2 9.2z"/></g></svg>

<?xml version="1.0" encoding="UTF-8"?>
<svg width="60px" height="73px" viewBox="0 0 60 73" version="1.1" xmlns="http://www.w3.org/2000/svg" xmlns:xlink="http://www.w3.org/1999/xlink">
    <!-- Generator: sketchtool 49.1 (51147) - http://www.bohemiancoding.com/sketch -->
    <title>9F0EA07B-DC79-4681-B66C-F10257FB266F</title>
    <desc>Created with sketchtool.</desc>
    <defs>
        <linearGradient x1="-10.4504202%" y1="91.8482143%" x2="107.505378%" y2="-3.5842033%" id="linearGradient-1">
            <stop stop-color="#4AFDCB" offset="0%"></stop>
            <stop stop-color="#5DA5FD" offset="100%"></stop>
        </linearGradient>
        <linearGradient x1="-78.4891608%" y1="205.45%" x2="166.908392%" y2="-125.382381%" id="linearGradient-2">
            <stop stop-color="#4AFDCB" offset="0%"></stop>
            <stop stop-color="#5DA5FD" offset="100%"></stop>
        </linearGradient>
    </defs>
    <g id="Page-1" stroke="none" stroke-width="1" fill="none" fill-rule="evenodd">
        <g id="Landing-page" transform="translate(-210.000000, -1310.000000)" fill-rule="nonzero">
            <g id="vision" transform="translate(210.000000, 1093.000000)">
                <g id="Group-38" transform="translate(0.000000, 214.000000)">
                    <g id="Group-16">
                        <g id="vision-icons_edit_outline-01" transform="translate(0.000000, 3.000000)">
                            <path d="M18.5,67.4 L29.7,72.8 L41,67.4 C52.2,62 59.5,50.4 59.5,37.9 L59.5,11.1 L57,11.1 C52.2,11.1 48.4,7.2 48.4,2.5 L48.4,0 L11.1,0 L11.1,2.5 C11.1,7.3 7.2,11.1 2.5,11.1 L0,11.1 L0,38 C0,50.4 7.3,62 18.5,67.4 Z M4.9,15.8 C10.4,14.8 14.7,10.4 15.8,4.9 L43.8,4.9 C44.8,10.4 49.2,14.7 54.7,15.8 L54.7,38 C54.7,48.6 48.5,58.5 39,63.1 L29.9,67.5 L20.6,63 C11.1,58.4 4.9,48.6 4.9,37.9 L4.9,15.8 Z" id="Shape" fill="url(#linearGradient-1)"></path>
                            <polygon id="Shape" fill="url(#linearGradient-2)" points="45.7 26.2 44.1 24.6 26.3 42.4 18.6 34.8 17.1 36.4 26.3 45.6"></polygon>
                        </g>
                    </g>
                </g>
            </g>
        </g>
    </g>
</svg>
